!!!!SEGMENT: pl-wtm--a-43-185-99--001-002_fitelberg-grzegorz--piec-piesni-op-21-no-2-tajemnica-nad-wawozem.krn
!!!cenid: 19xx:92
!!!COM: Fitelberg, Grzegorz
!!!COM-rismID: pe41023683
!!!CDT: 1879-1953
!!!CNT: Polish
!!!GTL: Pięć pieśni Op. 21
!!!OTL: No. 2. Tajemnica/Nad wąwozem
!!!OMV: 002
!!!PDT:
!!!AGN: Secular; Song
!!!YEC: Copyright 2022 Narodowy Instytut Fryderyka Chopina (https://polishscores.org)
!!!YEM: License CC-BY-4.0 (https://creativecommons.org/licenses/by/4.0)
!!!SMS-siglum: PL-Wtm
!!!SMS-shelfmark: A.43.185/99
!!!SMS-variant:
!!!SMS-altvar:
!!!SMS-shelfwork: 001-002 G
!!!NIFC-rismSourceID: 1001162746
!!!NIFC-rismChildID: 1001162746
!!!NIFC-islandoraID: pl-wtm:43141
!!!URL-pdf-islandora: https://repozytorium.nifc.pl/islandora/object/pl-wtm%3A43141/datastream/PDF/view
!!!URL-scan: https://polish.musicsources.pl/pl/lokalizacje/galeria/druki-muzyczne/22420/4 @EN{Scan on Polish Music Sources Website} @PL{Skany w portalu Dziedzictwo Muzyki Polskiej w otwartym dostępie}
!!!IIIF:
!!!ONB-nifc:
!!!OMD: Andante, molto tranquillo.
!!!AIN: 1 piano 1 vox
!!!key: d#
**kern	**kern	**dynam	**kern	**text	**text	**dynam
*part2	*part2	*part2	*part1	*part1	*part1	*part1
*staff3	*staff2	*	*staff1	*staff1	*staff1	*
*ICklav	*ICklav	*	*ICvox	*	*	*
*Ipiano	*Ipiano	*	*Ivox	*	*	*
*I"Klavier	*I"Klavier	*	*I"Singstimme.	*	*	*
*clefF4	*clefG2	*	*clefG2	*	*	*
*k[f#c#g#d#a#e#]	*k[f#c#g#d#a#e#]	*	*k[f#c#g#d#a#e#]	*	*	*
*d#:	*d#:	*	*d#:	*	*	*
*M3/4	*M3/4	*	*M3/4	*	*	*
16r	([8b~\ [8bb	p >	8r	.	.	.
(16FFF#/	.	.	.	.	.	.
=1	=1	=1	=1	=1	=1	=1
*	*^	*	*	*	*	*
*Xtuplet	*	*	*	*	*	*	*
12FF#/L	8b\L] 8bb]	4ryy	.	4r	.	.	.
12C#/	.	.	.	.	.	.	.
.	8a#\J 8aa#	.	]	.	.	.	.
12C##X/J	.	.	<	.	.	.	.
!	!	!	!	!	!	!	!LO:DY:a:rj
12D#\L	8b#X/L	(4f#\	.	4a#/	In	Nad	p
12A#\	.	.	.	.	.	.	.
.	8cc#/J	.	.	.	.	.	.
12D##X\J	.	.	.	.	.	.	.
12E#\L	6ddn/)	4g#\)	.	4g#/	die	wą-	.
12B\)	.	.	.	.	.	.	.
([<12F#\J	([<12an/ [>12aan	.	[	.	.	.	.
*	*v	*v	*	*	*	*	*
=2	=2	=2	=2	=2	=2	=2
4F#\] 4B#X 4dn	8a\] 8aa]	>	(4dn/	dunk-	-wo-	.
.	4g#\) 4gg#	.	.	.	.	.
!	!	!	!	!	!	!LO:DY:a
4en\	.	]	4en/)	.	-zem	<
.	(4a#X\ 4aa#X	<	.	.	.	.
*tuplet	*	*	*	*	*	*
6e#X\)	.	.	4e#X/	-le	śród	[[
.	[8b\ [8bb	.	.	.	.	.
(12FFF#/	.	[	.	.	.	.
!!LO:LB:g=original
=3	=3	=3	=3	=3	=3	=3
*	*^	*	*	*	*	*
*Xtuplet	*	*	*	*	*	*	*
!	!	!	!	!	!	!	!LO:HP:a
12FF#/L	8b/L] 8bb]	4g#\	>	2g#/	Berg-	gór	>
12C#/	.	.	.	.	.	.	.
.	8a#/J 8aa#	.	.	.	.	.	.
12C##X/J	.	.	]	.	.	.	.
12D#\L	8b#X/L	(4f#\	<	.	.	.	.
12A#\	.	.	.	.	.	.	.
.	8cc#/J	.	.	.	.	.	.
12D##X\J	.	.	.	.	.	.	.
12E#\L	6ddn/)	4g#\)	.	4f#/	-schlucht	mie-	]
12B\)	.	.	.	.	.	.	.
([<12F#\J	([<12an/ [12aan	.	[	.	.	.	.
*	*v	*v	*	*	*	*	*
=4	=4	=4	=4	=4	=4	=4
!	!	!	!	!	!	!LO:HP:a
4F#\] 4cn [4dn	8a\] 8aa]	>	2ddn\	kehrt	-się-	<
.	4b\ 4bb	.	.	.	.	.
4Fn\ 4An 4d_	.	.	.	.	.	.
.	4ccn\) 4cccn	.	.	.	.	.
*tuplet	*	*	*	*	*	*
6En\) 6G#X 6d]	.	]	4dd\	der	-czny	.
.	([8ddn~\ [8dddn	.	.	.	.	.
(12AAA#/	.	.	.	.	.	[[
=5||	=5||	=5||	=5||	=5||	=5||	=5||
*k[]	*k[]	*	*k[]	*	*	*
*	*^	*	*	*	*	*
*Xtuplet	*	*	*	*	*	*	*
12AA\L	8dd\L] 8ddd]	4ryy	.	[2.ee\	Mond	pło-	.
12E\	.	.	.	.	.	.	.
.	8cc\J 8ccc	.	.	.	.	.	.
12F\J	.	.	.	.	.	.	.
12F#X\L	8dd#X/L	(4a\	.	.	.	.	.
12c\	.	.	.	.	.	.	.
.	8ee/J	.	.	.	.	.	.
12G\J	.	.	.	.	.	.	.
12c#X\L)	6ff/)	4a#X\)	.	.	.	.	.
(N[<12G#X\	.	.	.	.	.	.	.
[<12d\J	([12cc/ [12ccc	.	.	.	.	.	.
*	*v	*v	*	*	*	*	*
!!LO:LB:g=original
=6	=6	=6	=6	=6	=6	=6
*^	*	*	*	*	*	*
!	!	!	!	!	!	!	!LO:HP:a
4fn/	2G#\N] 2d]	8cc\] 8ccc]	>	2ee\]	.	.	>
.	.	4b\) 4bb	.	.	.	.	.
4e/)	.	.	]	.	.	.	.
.	.	(4cc#X\ 4ccc#X	<	.	.	.	.
*tuplet	*	*	*	*	*	*	*
!LO:TUP:b	!	!	!	!	!	!	!
6r	4ryy	.	.	4b\	zu-	-nie	.
.	.	[8dd\ [8ddd	.	.	.	.	.
(12AAA/	.	.	[	.	.	.	]]
*v	*v	*	*	*	*	*	*
=7	=7	=7	=7	=7	=7	=7
*	*^	*	*	*	*	*
*Xtuplet	*	*	*	*	*	*	*
12AA\L	8dd\L] 8ddd]	4ryy	>	2cc\	-rück.	blask.	.
12E\	.	.	.	.	.	.	.
.	8ccn\J 8cccn	.	.	.	.	.	.
12F\J	.	.	]	.	.	.	.
12F#X\L	8dd#X/L	(4a\	<	.	.	.	.
12c\	.	.	.	.	.	.	.
.	8ee/J	.	.	.	.	.	.
12G\J	.	.	.	.	.	.	.
12c#X\L)	6ff/)	4a#X\)	.	4r	.	.	.
(N[<12A-X\	.	.	.	.	.	.	.
[<12d\J	([<12cc/ [12ccc	.	[	.	.	.	.
*	*v	*v	*	*	*	*	*
=8	=8	=8	=8	=8	=8	=8
*^	*	*	*	*	*	*
*	*^	*	*	*	*	*	*
2.f/)	2.A-\N]	(<4d/]	8cc\] 8ccc]	>	4r	.	.	.
.	.	.	4bn\ 4bbn	.	.	.	.	.
!	!	!	!	!	!	!	!	!LO:HP:a
.	.	4d-X/	.	.	4f/	Ei-	Nad	<
.	.	.	4dd-X\) 4ddd-X	.	.	.	.	.
.	.	4c/)	.	.	4f/	-ne	po	[
.	.	.	([8ee-X\ [8eee-X	]]	.	.	.	.
*v	*v	*v	*	*	*	*	*	*
!!LO:PB:g=original
=9	=9	=9	=9	=9	=9	=9
*	*^	*	*	*	*	*
!LO:TX:t=P:problem=mixed beam	!	!	!	!	!	!	!
16G~>\LL 16Bn 16f	8ee-\L] 8eee-]	4ryy	<	2ff\	Stim-	to-	.
(16GGG/	.	.	.	.	.	.	.
16GG/	8ddn\J 8dddn	.	.	.	.	.	.
16D/JJ	.	.	.	.	.	.	.
16D#X\LL	8f#X/L 8ff#X	4cc#X\	.	.	.	.	.
16E\	.	.	.	.	.	.	.
16B-X\	8g/J 8gg	.	.	.	.	.	.
16F\JJ	.	.	.	.	.	.	.
12Bn\L)	6a-X/) 6aa-X	4dd\	.	4dd\	-me	-kiem	.
(N[<12G\	.	.	[	.	.	.	.
[<12c#X\J	([<12ccn/ [12cccn	.	.	.	.	.	.
*	*v	*v	*	*	*	*	*
=10	=10	=10	=10	=10	=10	=10
*^	*	*	*	*	*	*
2f/	(>4G\N]) 4c#]	8cc\] 8ccc]	>	4r	.	.	.
.	.	4bn\) 4bbn	.	.	.	.	.
.	4A-X\) 4dn	.	.	4b\	singt	ktoś	.
.	.	(4dd-X\ 4ddd-X	]	.	.	.	.
*tuplet	*	*	*	*	*	*	*
!LO:TUP:b	!	!	!	!	!	!	!
6r	4ryy	.	<	4b\	am	za-	.
.	.	[8ee-X\ [8eee-X	.	.	.	.	.
(12GGG/	.	.	[	.	.	.	.
*v	*v	*	*	*	*	*	*
=11	=11	=11	=11	=11	=11	=11
*	*^	*	*	*	*	*
*Xtuplet	*	*	*	*	*	*	*
!	!	!	!	!	!	!	!LO:HP:a
12GG/L	8ee-\L] 8eee-]	4ryy	>	(<4.b\	Was-	-wo-	<
12D/	.	.	.	.	.	.	.
.	8ddn\J 8dddn	.	]	.	.	.	.
12D#X/J	.	.	<	.	.	.	.
12E\L	8f#X/L 8ff#X	4cc#X\	.	.	.	.	.
12B-X\	.	.	.	.	.	.	.
.	8g/J 8gg	.	.	8b-X\)	-ser-	.	.
12F\J	.	.	.	.	.	.	.
12Bn\L)	6a-X/) 6aa-X	4dd\	.	4a-X/	-sturz:	-dzi:	[
(N[<12G\	.	.	.	.	.	.	.
[<12c#X\J	([<12ccn/ [12cccn	.	[[	.	.	.	.
*	*v	*v	*	*	*	*	*
!!LO:LB:g=original
=12	=12	=12	=12	=12	=12	=12
*^	*	*	*	*	*	*
*	*^	*	*	*	*	*	*
*	*	*	*	*^	*	*	*	*
!LO:TX:b:i:t=espress.	!	!	!	!	!LO:HP:a	!	!	!	!
2f/)	2G\N]	(4c#/]	8cc\] 8ccc]	>	<	2.r	.	.	.
.	.	.	4b\) 4bb	]	.	.	.	.	.
.	.	[<2c##X/)	.	.	.	.	.	.	.
.	.	.	8r	.	.	.	.	.	.
4rd	4r	.	4r	.	[	.	.	.	.
*	*	*	*	*v	*v	*	*	*	*
*v	*v	*v	*	*	*	*	*	*
=13||	=13||	=13||	=13||	=13||	=13||	=13||
*k[f#c#g#d#a#e#]	*k[f#c#g#d#a#e#]	*	*k[f#c#g#d#a#e#]	*	*	*
*^	*^	*	*	*	*	*
!	!	!LO:TX:a:i:t=molto espr.	!	!	!LO:TX:a:B:t=Molto largamente.	!	!	!
(2c##/]	8r	(>4.b/ 4.bb	2ryy	p	4r	.	.	.
.	(8FFF#\L	.	.	.	.	.	.	.
!	!	!	!	!	!	!	!	!LO:DY:a:rj
!	!	!	!	!LO:HP:t=cresc._:ext=ud	!	!	!	!LO:HP:a
.	8FF#\	.	.	<	4.ff#\	O	O	p <
.	8C##X\J	8a#/L 8aa#	.	.	.	.	.	.
4d#/	4D#\ 4A#	8B#X/ 8b#X	4f#\	.	.	.	.	.
.	.	8c#/J 8cc#	.	.	8cc#\	Ge-	mój	[[
*v	*v	*	*	*	*	*	*	*
*	*v	*v	*	*	*	*	*
=14	=14	=14	=14	=14	=14	=14
*M4/4	*M4/4	*	*M4/4	*	*	*
*^	*^	*	*	*	*	*
!	!	!	!	!	!	!	!	!LO:HP:a:t=cresc._:ext=ud
4E#\)) 4B 4e#	4ryy	4dn/) 4ddn	4g#\	.	4ddn\	-lieb-	lu-	<
.	(>16qqE#/LL	.	(16qqd#X/LL	[ f	.	.	.	.
.	16qqB/	.	16qqg#/	.	.	.	.	.
.	(<16qqe#/JJ	.	[16qqdd/JJ	.	.	.	.	.
2.a#X/)	(4e#\)	2.aa#X~/)	(4dd\]	.	4dd\	-tes,	-by,	.
!	!	!	!	!LO:HP:t=cresc._:ext=ud	!	!	!	!
.	4d#X\	.	4dd#X\	<	8r	.	.	.
.	.	.	.	.	4dd#X\	dei-	sło-	.
.	4e#\)	.	4ee#\)	.	.	.	.	.
.	.	.	.	.	8ee#X\	-ne	-dycz	.
*v	*v	*	*	*	*	*	*	*
*	*v	*v	*	*	*	*	*
!!LO:LB:g=original
=15	=15	=15	=15	=15	=15	=15
*M3/2	*M3/2	*	*M3/2	*	*	*
*	*	*	*^	*	*	*
*	*	*^	*	*	*	*	*
!LO:TX:t=P:problem=mixed beam	!	!	!	!LO:TX:t=4=4	!	!	!	!LO:DY:a:rj
8F#\L 8d# 8f#	(2.b\ 2.dd# 2.bb	[ ff	.	8gg#\	4ryy	höch-	twej	[ ff
(32FFF#^/LL	.	.	.	8ff#\	.	-ste	bło-	.
32GGG#/	.	.	.	.	.	.	.	.
32AAA#/	.	.	.	.	.	.	.	.
32BBB/	.	.	.	.	.	.	.	.
!	!	!	!	!	!LO:N:cue	!	!	!LO:HP:a
32CC#/	.	.	.	4.bb\	4.ff#\	Won-	-go-	>
32DD#/	.	.	.	.	.	.	.	.
32EE#/	.	.	.	.	.	.	.	.
32FF#/	.	.	.	.	.	.	.	.
32GG#/	.	.	.	.	.	.	.	.
32AA#/	.	.	.	.	.	.	.	.
32BB/	.	.	.	.	.	.	.	.
32C#/JJJ	.	.	.	.	.	.	.	.
!	!	!LO:HP:t=dim._:ext=ud	!	!	!	!	!	!
36D#\LLL	.	>	>	.	.	.	.	.
36E#\	.	.	.	.	.	.	.	.
36F#\	.	.	.	.	.	.	.	.
36G#\	.	.	.	.	.	.	.	.
36A#\	.	.	.	.	.	.	.	.
!	!	!	!	!	!LO:N:cue	!	!	!
.	.	.	.	4ff#\	4b\	-ne	-ści,	]
36B\	.	.	.	.	.	.	.	.
36c#\	.	.	.	.	.	.	.	.
36d#\	.	] >	.	.	.	.	.	.
36e#\JJJ	.	.	.	.	.	.	.	.
8f#\)	4a#\ 4aa#	.	]	.	.	.	.	.
8r	.	.	.	8r	8ryy	.	.	.
!	!	!	!	!	!	!	!	!LO:DY:a
(<4D#\ 4An	4B#X/ 4f# 4b#X	.	.	4b#X\	2ryy	und	twej	mp
!	!	!	!	!	!	!	!	!LO:HP:a
4En\ 4A#X	4c#/ 4gn 4cc#	.	.	4cc#\	.	dein	bo-	<
*	*	*v	*v	*	*	*	*	*
*	*	*	*v	*v	*	*	*
=16	=16	=16	=16	=16	=16	=16
*^	*	*	*	*	*	*
!	!	!	!	!	!	!	!LO:HP:a
1.E#X) 1.B	2ryy	N(2dn/) 2g# 2ddn	] p	2.ddn\	tief-	-le-	[ >
.	(>2dn/N)	2.an\ 2.aan	.	.	.	.	.
.	.	.	.	4dn/	-ster	-ści	.
.	2c#/)	.	.	[2c#/	Schmerz	głąb	]
.	.	([4a~\ [4aa	.	.	.	.	.
!!LO:LB:g=original
=17	=17	=17	=17	=17	=17	=17	=17
4r	1ryy	1a_ 1aa_	.	1c#]	.	.	.
(>4FFF#/	.	.	.	.	.	.	.
4FF#/	.	.	.	.	.	.	.
4C#/	.	.	>	.	.	.	.
2c#/	N[4c#\	4a\] 4aa]	.	2r	.	.	.
.	[4F#\	[4a#X\ [4aa#X	.	.	.	.	.
=18	=18	=18	=18	=18	=18	=18	=18
*	*^	*^	*	*	*	*	*
!	!	!	!	!	!	!LO:TX:a:B:t=Lento	!	!	!
1.f#)	2.F#\]	&((1c#N]	1.a#]) 1.aa#]	1ryy	.	2r	.	.	.
!	!	!	!	!	!	!LO:TX:a:i:t=e rit.	!	!	!LO:DY:a:rj
.	.	.	.	.	]	2a#/	sind	to	pp
!	!	!	!	!	!LO:HP:t=dim.	!	!	!	!
.	4r	.	.	.	>	.	.	.	.
.	2r	2B#X/)	.	2dd#\&)	.	2dd#\	mein	mój	.
*v	*v	*v	*	*	*	*	*	*	*
*	*v	*v	*	*	*	*	*
=19	=19	=19	=19	=19	=19	=19
!LO:TX:a:i:t=lento e rit.	!	!	!	!	!	!LO:DY:a
(1.DDD#;< 1.AAA# 1.DD#	1.a#; 1.dd# 1.ff##X 1.aa#	ppp	1.ff##X;	Glück....	raj....	ppp
4qqAA#\	.	.	.	.	.	.
4qqD#\	.	.	.	.	.	.
4qqF##X\	.	.	.	.	.	.
4qqA#\	.	.	.	.	.	.
4qqd#\	.	.	.	.	.	.
4qqf##X>\	.	>	.	.	.	.
4qqa#>\	.	.	.	.	.	.
4qqdd#>\	.	.	.	.	.	.
4qqff##X>;\)	.	]]	.	.	.	.
==	==	==	==	==	==	==
*-	*-	*-	*-	*-	*-	*-
!!!system-decoration: s1{(s2,s3)}
!!!RDF**kern: < = below
!!!RDF**kern: > = above
!!!RDF**kern: N = linked
!!!ENC: Andrzej Gręziak
!!!END: 2023-10-03
!!!EED: Marta Chmielewska
!!!EEV: 2023-10-17
